;FLAVOR:RepRap
;TIME:3938
;Filament used: 3.29521m
;Layer height: 0.15
;Generated with Cura_SteamEngine 2.6.2
M190 S60
M104 S200
M109 S200
G21 ;metric values
G90 ;absolute positioning
M82 ;set extruder to absolute mode
M107 ;start with the fan off
G28 X0 Y0 ;move X/Y to min endstops
G28 Z0 ;move Z to min endstops
G1 Z15.0 F9000 ;move the platform down 15mm
G92 E0 ;zero the extruded length
G1 F200 E3 ;extrude 3mm of feed stock
G92 E0 ;zero the extruded length again
G1 F9000
;Put printing message on LCD screen
M117 Printing...
;LAYER_COUNT:166
;LAYER:0
M107
G0 F3600 X62.477 Y62.152 Z0.3
;TYPE:SKIRT
G1 F1800 X64.478 Y60.267 E0.13715
G1 X64.831 Y59.954 E0.16069
G1 X66.943 Y58.193 E0.29788
G1 X67.314 Y57.903 E0.32137
G1 X69.52 Y56.279 E0.45804
G1 X69.91 Y56.009 E0.4817
G1 X72.231 Y54.509 E0.61957
G1 X72.63 Y54.268 E0.64283
G1 X75.01 Y52.924 E0.77919
G1 X75.433 Y52.702 E0.80303
G1 X77.91 Y51.497 E0.94045
G1 X78.335 Y51.306 E0.9637
G1 X80.88 Y50.251 E1.10114
G1 X81.321 Y50.083 E1.12469
G1 X83.916 Y49.187 E1.26165
G1 X84.369 Y49.046 E1.28532
G1 X87.019 Y48.308 E1.42256
G1 X87.477 Y48.195 E1.4461
G1 X90.163 Y47.619 E1.58315
G1 X90.625 Y47.535 E1.60658
G1 X93.346 Y47.121 E1.74389
G1 X93.812 Y47.064 E1.76731
G1 X96.538 Y46.816 E1.90388
G1 X97.007 Y46.788 E1.92732
G1 X99.759 Y46.704 E2.06468
G1 X100.232 Y46.704 E2.08828
G1 X102.982 Y46.787 E2.22554
G1 X103.453 Y46.815 E2.24908
G1 X106.181 Y47.063 E2.38574
G1 X106.648 Y47.12 E2.40921
G1 X109.369 Y47.534 E2.54652
G1 X109.833 Y47.619 E2.57006
G1 X112.526 Y48.197 E2.70747
G1 X112.983 Y48.309 E2.73095
G1 X115.638 Y49.049 E2.86845
G1 X116.088 Y49.19 E2.89198
G1 X118.676 Y50.083 E3.02857
G1 X119.118 Y50.25 E3.05214
G1 X121.657 Y51.302 E3.18925
G1 X122.084 Y51.494 E3.21261
G1 X124.56 Y52.699 E3.34999
G1 X124.976 Y52.917 E3.37342
G1 X127.358 Y54.259 E3.50982
G1 X127.766 Y54.506 E3.53362
G1 X130.086 Y56.007 E3.67148
G1 X130.471 Y56.273 E3.69482
G1 X132.681 Y57.899 E3.83171
G1 X133.052 Y58.19 E3.85523
G1 X135.163 Y59.949 E3.99232
G1 X135.518 Y60.263 E4.01596
G1 X137.518 Y62.147 E4.15304
G1 X137.848 Y62.477 E4.17633
G1 X139.729 Y64.474 E4.31319
G1 X140.041 Y64.826 E4.33666
G1 X141.809 Y66.946 E4.47438
G1 X142.101 Y67.318 E4.49798
G1 X143.722 Y69.52 E4.63439
G1 X143.991 Y69.91 E4.65803
G1 X145.491 Y72.231 E4.7959
G1 X145.734 Y72.633 E4.81934
G1 X147.077 Y75.014 E4.95572
G1 X147.295 Y75.431 E4.97919
G1 X148.499 Y77.903 E5.11637
G1 X148.692 Y78.329 E5.1397
G1 X149.749 Y80.877 E5.27733
G1 X149.917 Y81.321 E5.30101
G1 X150.813 Y83.917 E5.43802
G1 X150.955 Y84.371 E5.46176
G1 X151.691 Y87.016 E5.59873
G1 X151.802 Y87.468 E5.62195
G1 X152.382 Y90.167 E5.75968
G1 X152.468 Y90.635 E5.78342
G1 X152.881 Y93.354 E5.92063
G1 X152.937 Y93.818 E5.94394
G1 X153.185 Y96.542 E6.08041
G1 X153.213 Y97.013 E6.10394
G1 X153.296 Y99.76 E6.24106
G1 X153.296 Y100.233 E6.26465
G1 X153.212 Y102.992 E6.40236
G1 X153.184 Y103.462 E6.42585
G1 X152.936 Y106.188 E6.56242
G1 X152.879 Y106.653 E6.58579
G1 X152.466 Y109.371 E6.72295
G1 X152.381 Y109.836 E6.74653
G1 X151.804 Y112.524 E6.88369
G1 X151.692 Y112.98 E6.90712
G1 X150.952 Y115.637 E7.04472
G1 X150.811 Y116.088 E7.06829
G1 X149.918 Y118.676 E7.20488
G1 X149.75 Y119.12 E7.22856
G1 X148.697 Y121.659 E7.3657
G1 X148.506 Y122.083 E7.3889
G1 X147.299 Y124.564 E7.52655
G1 X147.078 Y124.985 E7.55027
G1 X145.734 Y127.367 E7.68672
G1 X145.492 Y127.767 E7.71004
G1 X143.996 Y130.082 E7.84756
G1 X143.728 Y130.471 E7.87112
G1 X142.103 Y132.68 E8.00794
G1 X141.81 Y133.055 E8.03168
G1 X140.049 Y135.166 E8.16883
G1 X139.738 Y135.516 E8.19219
G1 X137.85 Y137.521 E8.32959
G1 X137.519 Y137.851 E8.35291
G1 X135.517 Y139.737 E8.49013
G1 X135.162 Y140.052 E8.51381
G1 X133.051 Y141.811 E8.6509
G1 X132.68 Y142.102 E8.67442
G1 X130.471 Y143.727 E8.81123
G1 X130.083 Y143.995 E8.83476
G1 X127.764 Y145.494 E8.97252
G1 X127.363 Y145.736 E8.99589
G1 X124.981 Y147.08 E9.13234
G1 X124.56 Y147.301 E9.15606
G1 X122.083 Y148.506 E9.29349
G1 X121.656 Y148.698 E9.31684
G1 X119.111 Y149.752 E9.45427
G1 X118.67 Y149.919 E9.4778
G1 X116.082 Y150.812 E9.61438
G1 X115.631 Y150.953 E9.63796
G1 X112.981 Y151.691 E9.7752
G1 X112.525 Y151.803 E9.79862
G1 X109.833 Y152.381 E9.93599
G1 X109.369 Y152.466 E9.95952
G1 X106.647 Y152.88 E10.09689
G1 X106.18 Y152.937 E10.12036
G1 X103.453 Y153.185 E10.25697
G1 X102.982 Y153.213 E10.28051
G1 X100.233 Y153.296 E10.41772
G1 X99.76 Y153.296 E10.44132
G1 X97.007 Y153.212 E10.57873
G1 X96.538 Y153.184 E10.60217
G1 X93.812 Y152.936 E10.73873
G1 X93.346 Y152.879 E10.76216
G1 X90.625 Y152.465 E10.89947
G1 X90.161 Y152.38 E10.923
G1 X87.469 Y151.802 E11.06037
G1 X87.013 Y151.69 E11.08379
G1 X84.363 Y150.952 E11.22103
G1 X83.912 Y150.811 E11.24461
G1 X81.324 Y149.918 E11.3812
G1 X80.879 Y149.749 E11.40494
G1 X78.334 Y148.693 E11.54241
G1 X77.91 Y148.503 E11.56559
G1 X75.434 Y147.298 E11.70297
G1 X75.015 Y147.078 E11.72658
G1 X72.634 Y145.735 E11.86296
G1 X72.232 Y145.492 E11.8864
G1 X69.91 Y143.991 E12.02434
G1 X69.521 Y143.722 E12.04794
G1 X67.314 Y142.098 E12.18464
G1 X66.94 Y141.806 E12.20831
G1 X64.829 Y140.045 E12.34547
G1 X64.478 Y139.733 E12.36889
G1 X62.478 Y137.849 E12.50597
G1 X62.148 Y137.518 E12.52929
G1 X60.258 Y135.511 E12.66683
G1 X59.942 Y135.155 E12.69058
G1 X58.184 Y133.044 E12.82764
G1 X57.896 Y132.676 E12.85095
G1 X56.271 Y130.468 E12.98773
G1 X56.002 Y130.078 E13.01136
G1 X54.506 Y127.763 E13.14887
G1 X54.264 Y127.363 E13.1722
G1 X52.92 Y124.981 E13.30865
G1 X52.699 Y124.56 E13.33237
G1 X51.491 Y122.077 E13.47013
G1 X51.298 Y121.648 E13.4936
G1 X50.247 Y119.109 E13.63069
G1 X50.081 Y118.67 E13.65411
G1 X49.188 Y116.082 E13.7907
G1 X49.047 Y115.631 E13.81427
G1 X48.308 Y112.978 E13.95167
G1 X48.196 Y112.523 E13.97505
G1 X47.619 Y109.837 E14.11211
G1 X47.534 Y109.371 E14.13574
G1 X47.121 Y106.653 E14.2729
G1 X47.064 Y106.187 E14.29632
G1 X46.816 Y103.459 E14.43298
G1 X46.788 Y102.992 E14.45632
G1 X46.704 Y100.248 E14.59329
G1 X46.704 Y99.774 E14.61693
G1 X46.787 Y97.016 E14.75459
G1 X46.815 Y96.544 E14.77818
G1 X47.063 Y93.818 E14.91475
G1 X47.12 Y93.353 E14.93812
G1 X47.533 Y90.635 E15.07528
G1 X47.618 Y90.171 E15.09881
G1 X48.195 Y87.482 E15.23602
G1 X48.307 Y87.024 E15.25954
G1 X49.049 Y84.362 E15.39741
G1 X49.19 Y83.912 E15.42094
G1 X50.083 Y81.324 E15.55752
G1 X50.25 Y80.884 E15.581
G1 X51.299 Y78.351 E15.71778
G1 X51.492 Y77.922 E15.74125
G1 X52.7 Y75.44 E15.87897
G1 X52.917 Y75.024 E15.90238
G1 X54.259 Y72.642 E16.03878
G1 X54.506 Y72.234 E16.06257
G1 X56.007 Y69.914 E16.20043
G1 X56.273 Y69.529 E16.22378
G1 X57.896 Y67.323 E16.36041
G1 X58.186 Y66.952 E16.3839
G1 X59.944 Y64.842 E16.52092
G1 X60.258 Y64.488 E16.54453
G1 X62.146 Y62.483 E16.68193
G1 X62.477 Y62.152 E16.70528
G0 F3600 X62.751 Y62.444
G1 F1800 X64.752 Y60.559 E16.84243
G1 X65.087 Y60.261 E16.8648
G1 X67.199 Y58.5 E17.00199
G1 X67.551 Y58.225 E17.02428
G1 X69.757 Y56.601 E17.16094
G1 X70.127 Y56.345 E17.18339
G1 X72.448 Y54.845 E17.32126
G1 X72.826 Y54.616 E17.34331
G1 X75.206 Y53.272 E17.47967
G1 X75.608 Y53.062 E17.5023
G1 X78.085 Y51.857 E17.63973
G1 X78.488 Y51.675 E17.66179
G1 X81.033 Y50.62 E17.79924
G1 X81.452 Y50.461 E17.82159
G1 X84.047 Y49.565 E17.95856
G1 X84.477 Y49.431 E17.98103
G1 X87.127 Y48.693 E18.11827
G1 X87.56 Y48.586 E18.14052
G1 X90.246 Y48.01 E18.27757
G1 X90.685 Y47.93 E18.29984
G1 X93.406 Y47.516 E18.43715
G1 X93.849 Y47.462 E18.45941
G1 X96.575 Y47.214 E18.59598
G1 X97.019 Y47.187 E18.61817
G1 X99.771 Y47.103 E18.75553
G1 X100.22 Y47.103 E18.77793
G1 X102.97 Y47.186 E18.91519
G1 X103.417 Y47.213 E18.93753
G1 X106.145 Y47.461 E19.0742
G1 X106.588 Y47.515 E19.09646
G1 X109.309 Y47.929 E19.23377
G1 X109.749 Y48.01 E19.25609
G1 X112.442 Y48.588 E19.39351
G1 X112.876 Y48.695 E19.41581
G1 X115.531 Y49.435 E19.55332
G1 X115.958 Y49.568 E19.57563
G1 X118.546 Y50.461 E19.71222
G1 X118.965 Y50.62 E19.73457
G1 X121.504 Y51.672 E19.87169
G1 X121.909 Y51.854 E19.89384
G1 X124.385 Y53.059 E20.03122
G1 X124.779 Y53.266 E20.05342
G1 X127.161 Y54.608 E20.18983
G1 X127.549 Y54.842 E20.21243
G1 X129.869 Y56.343 E20.35029
G1 X130.234 Y56.595 E20.37242
G1 X132.444 Y58.221 E20.5093
G1 X132.796 Y58.497 E20.53162
G1 X134.907 Y60.256 E20.66871
G1 X135.244 Y60.555 E20.69118
G1 X137.244 Y62.439 E20.82826
G1 X137.557 Y62.751 E20.85031
G1 X139.438 Y64.748 E20.98718
G1 X139.734 Y65.083 E21.00948
G1 X141.502 Y67.203 E21.1472
G1 X141.778 Y67.555 E21.16952
G1 X143.399 Y69.757 E21.30593
G1 X143.655 Y70.127 E21.32838
G1 X145.155 Y72.448 E21.46625
G1 X145.385 Y72.829 E21.48846
G1 X146.728 Y75.21 E21.62484
G1 X146.936 Y75.606 E21.64715
G1 X148.14 Y78.078 E21.78433
G1 X148.322 Y78.483 E21.80648
G1 X149.379 Y81.031 E21.94411
G1 X149.539 Y81.452 E21.96658
G1 X150.435 Y84.048 E22.10359
G1 X150.569 Y84.478 E22.12606
G1 X151.305 Y87.123 E22.26303
G1 X151.411 Y87.552 E22.28508
G1 X151.991 Y90.251 E22.42281
G1 X152.072 Y90.695 E22.44533
G1 X152.485 Y93.414 E22.58253
G1 X152.539 Y93.854 E22.60465
G1 X152.787 Y96.578 E22.74111
G1 X152.814 Y97.026 E22.7635
G1 X152.897 Y99.773 E22.90061
G1 X152.897 Y100.221 E22.92297
G1 X152.813 Y102.98 E23.06068
G1 X152.786 Y103.425 E23.08292
G1 X152.538 Y106.151 E23.21948
G1 X152.484 Y106.593 E23.2417
G1 X152.071 Y109.311 E23.37885
G1 X151.99 Y109.752 E23.40122
G1 X151.413 Y112.44 E23.53838
G1 X151.307 Y112.872 E23.56058
G1 X150.567 Y115.529 E23.69818
G1 X150.433 Y115.958 E23.7206
G1 X149.54 Y118.546 E23.85719
G1 X149.38 Y118.967 E23.87966
G1 X148.327 Y121.506 E24.01679
G1 X148.146 Y121.908 E24.03878
G1 X146.939 Y124.389 E24.17643
G1 X146.73 Y124.788 E24.1989
G1 X145.386 Y127.17 E24.33535
G1 X145.156 Y127.55 E24.35752
G1 X143.66 Y129.865 E24.49503
G1 X143.406 Y130.234 E24.51738
G1 X141.781 Y132.443 E24.65419
G1 X141.502 Y132.798 E24.67672
G1 X139.741 Y134.909 E24.81387
G1 X139.446 Y135.242 E24.83607
G1 X137.558 Y137.247 E24.97346
G1 X137.245 Y137.56 E24.99555
G1 X135.243 Y139.446 E25.13277
G1 X134.906 Y139.745 E25.15524
G1 X132.795 Y141.504 E25.29233
G1 X132.443 Y141.78 E25.31465
G1 X130.234 Y143.405 E25.45146
G1 X129.866 Y143.659 E25.47377
G1 X127.547 Y145.158 E25.61153
G1 X127.166 Y145.388 E25.63374
G1 X124.784 Y146.732 E25.77019
G1 X124.385 Y146.941 E25.79266
G1 X121.908 Y148.146 E25.93008
G1 X121.502 Y148.329 E25.9523
G1 X118.957 Y149.383 E26.08973
G1 X118.54 Y149.541 E26.11198
G1 X115.952 Y150.434 E26.24856
G1 X115.523 Y150.568 E26.27099
G1 X112.873 Y151.306 E26.40823
G1 X112.441 Y151.412 E26.43042
G1 X109.749 Y151.99 E26.56778
G1 X109.309 Y152.071 E26.5901
G1 X106.587 Y152.485 E26.72747
G1 X106.144 Y152.539 E26.74973
G1 X103.417 Y152.787 E26.88634
G1 X102.97 Y152.814 E26.90869
G1 X100.221 Y152.897 E27.0459
G1 X99.772 Y152.897 E27.0683
G1 X97.019 Y152.813 E27.20571
G1 X96.575 Y152.786 E27.2279
G1 X93.849 Y152.538 E27.36446
G1 X93.406 Y152.484 E27.38673
G1 X90.685 Y152.07 E27.52404
G1 X90.245 Y151.989 E27.54636
G1 X87.553 Y151.411 E27.68373
G1 X87.121 Y151.305 E27.70592
G1 X84.471 Y150.567 E27.84316
G1 X84.042 Y150.433 E27.86558
G1 X81.454 Y149.54 E28.00217
G1 X81.032 Y149.38 E28.02469
G1 X78.487 Y148.324 E28.16215
G1 X78.085 Y148.143 E28.18415
G1 X75.609 Y146.938 E28.32153
G1 X75.211 Y146.729 E28.34395
G1 X72.83 Y145.386 E28.48034
G1 X72.449 Y145.156 E28.50254
G1 X70.127 Y143.655 E28.64048
G1 X69.758 Y143.4 E28.66286
G1 X67.551 Y141.776 E28.79956
G1 X67.197 Y141.498 E28.82202
G1 X65.086 Y139.737 E28.95917
G1 X64.752 Y139.441 E28.98144
G1 X62.752 Y137.557 E29.11852
G1 X62.439 Y137.244 E29.1406
G1 X60.549 Y135.237 E29.27814
G1 X60.25 Y134.9 E29.30062
G1 X58.492 Y132.789 E29.43767
G1 X58.218 Y132.439 E29.45985
G1 X56.593 Y130.231 E29.59662
G1 X56.338 Y129.861 E29.61904
G1 X54.842 Y127.546 E29.75656
G1 X54.612 Y127.166 E29.77872
G1 X53.268 Y124.784 E29.91517
G1 X53.059 Y124.385 E29.93764
G1 X51.851 Y121.902 E30.0754
G1 X51.668 Y121.495 E30.09766
G1 X50.617 Y118.956 E30.23476
G1 X50.459 Y118.54 E30.25696
G1 X49.566 Y115.952 E30.39354
G1 X49.432 Y115.524 E30.41592
G1 X48.693 Y112.871 E30.55332
G1 X48.587 Y112.439 E30.57551
G1 X48.01 Y109.753 E30.71257
G1 X47.929 Y109.311 E30.73499
G1 X47.516 Y106.593 E30.87215
G1 X47.462 Y106.151 E30.89436
G1 X47.214 Y103.423 E31.03102
G1 X47.187 Y102.979 E31.05322
G1 X47.103 Y100.235 E31.19018
G1 X47.103 Y99.786 E31.21258
G1 X47.186 Y97.028 E31.35024
G1 X47.213 Y96.581 E31.37258
G1 X47.461 Y93.855 E31.50914
G1 X47.515 Y93.413 E31.53136
G1 X47.928 Y90.695 E31.66852
G1 X48.009 Y90.254 E31.69089
G1 X48.586 Y87.565 E31.82809
G1 X48.693 Y87.131 E31.85039
G1 X49.435 Y84.469 E31.98827
G1 X49.568 Y84.042 E32.01058
G1 X50.461 Y81.454 E32.14716
G1 X50.619 Y81.037 E32.16941
G1 X51.668 Y78.504 E32.30619
G1 X51.851 Y78.097 E32.32846
G1 X53.059 Y75.615 E32.46617
G1 X53.266 Y75.221 E32.48837
G1 X54.608 Y72.839 E32.62478
G1 X54.842 Y72.451 E32.64738
G1 X56.343 Y70.131 E32.78524
G1 X56.595 Y69.766 E32.80737
G1 X58.218 Y67.56 E32.944
G1 X58.494 Y67.208 E32.96632
G1 X60.252 Y65.098 E33.10334
G1 X60.55 Y64.762 E33.12574
G1 X62.438 Y62.757 E33.26314
G1 X62.751 Y62.444 E33.28522
G0 F3600 X63.025 Y62.735
G1 F1800 X65.026 Y60.85 E33.42237
G1 X65.343 Y60.569 E33.44351
G1 X67.455 Y58.808 E33.5807
G1 X67.788 Y58.547 E33.60181
G1 X69.994 Y56.923 E33.73847
G1 X70.344 Y56.681 E33.7597
G1 X72.665 Y55.181 E33.89757
G1 X73.023 Y54.965 E33.91843
G1 X75.403 Y53.621 E34.0548
G1 X75.783 Y53.421 E34.07622
G1 X78.26 Y52.216 E34.21365
G1 X78.641 Y52.045 E34.23448
G1 X81.186 Y50.99 E34.37193
G1 X81.582 Y50.839 E34.39307
G1 X84.177 Y49.943 E34.53004
G1 X84.584 Y49.817 E34.55129
G1 X87.234 Y49.079 E34.68853
G1 X87.644 Y48.978 E34.7096
G1 X90.33 Y48.402 E34.84665
G1 X90.745 Y48.326 E34.8677
G1 X93.466 Y47.912 E35.00501
G1 X93.885 Y47.861 E35.02607
G1 X96.611 Y47.613 E35.16263
G1 X97.031 Y47.587 E35.18363
G1 X99.783 Y47.503 E35.32099
G1 X100.208 Y47.503 E35.34219
G1 X102.958 Y47.586 E35.47945
G1 X103.381 Y47.612 E35.5006
G1 X106.109 Y47.86 E35.63726
G1 X106.528 Y47.911 E35.65832
G1 X109.249 Y48.325 E35.79563
G1 X109.665 Y48.401 E35.81673
G1 X112.358 Y48.979 E35.95414
G1 X112.768 Y49.08 E35.97521
G1 X115.423 Y49.82 E36.11272
G1 X115.827 Y49.946 E36.13383
G1 X118.415 Y50.839 E36.27042
G1 X118.811 Y50.989 E36.29154
G1 X121.35 Y52.041 E36.42866
G1 X121.734 Y52.214 E36.44967
G1 X124.21 Y53.419 E36.58705
G1 X124.583 Y53.614 E36.60805
G1 X126.965 Y54.956 E36.74445
G1 X127.331 Y55.178 E36.76581
G1 X129.651 Y56.679 E36.90366
G1 X129.997 Y56.918 E36.92464
G1 X132.207 Y58.544 E37.06153
G1 X132.54 Y58.804 E37.0826
G1 X134.651 Y60.563 E37.21969
G1 X134.97 Y60.846 E37.24097
G1 X136.97 Y62.73 E37.37805
G1 X137.266 Y63.025 E37.3989
G1 X139.147 Y65.022 E37.53577
G1 X139.427 Y65.339 E37.55687
G1 X141.195 Y67.459 E37.69459
G1 X141.456 Y67.792 E37.7157
G1 X143.077 Y69.994 E37.85211
G1 X143.319 Y70.344 E37.87334
G1 X144.819 Y72.665 E38.01121
G1 X145.037 Y73.026 E38.03225
G1 X146.38 Y75.407 E38.16863
G1 X146.576 Y75.781 E38.1897
G1 X147.78 Y78.253 E38.32688
G1 X147.953 Y78.636 E38.34785
G1 X149.01 Y81.184 E38.48547
G1 X149.161 Y81.582 E38.50671
G1 X150.057 Y84.178 E38.64372
G1 X150.184 Y84.585 E38.66499
G1 X150.92 Y87.23 E38.80196
G1 X151.02 Y87.636 E38.82282
G1 X151.6 Y90.335 E38.96055
G1 X151.677 Y90.755 E38.98186
G1 X152.09 Y93.474 E39.11906
G1 X152.14 Y93.89 E39.13997
G1 X152.388 Y96.614 E39.27643
G1 X152.414 Y97.038 E39.29762
G1 X152.497 Y99.785 E39.43473
G1 X152.497 Y100.209 E39.45589
G1 X152.413 Y102.968 E39.5936
G1 X152.387 Y103.389 E39.61464
G1 X152.139 Y106.115 E39.7512
G1 X152.089 Y106.533 E39.77221
G1 X151.676 Y109.251 E39.90936
G1 X151.599 Y109.668 E39.93052
G1 X151.022 Y112.356 E40.06768
G1 X150.921 Y112.765 E40.0887
G1 X150.181 Y115.422 E40.2263
