;FLAVOR:RepRap
;TIME:1852
;Filament used: 1.34478m
;Layer height: 0.15
;Generated with Cura_SteamEngine 2.6.2
M190 S60
M104 S200
M109 S200
G21 ;metric values
G90 ;absolute positioning
M82 ;set extruder to absolute mode
M107 ;start with the fan off
G28 X0 Y0 ;move X/Y to min endstops
G28 Z0 ;move Z to min endstops
G1 Z15.0 F9000 ;move the platform down 15mm
G92 E0 ;zero the extruded length
G1 F200 E3 ;extrude 3mm of feed stock
G92 E0 ;zero the extruded length again
G1 F9000
;Put printing message on LCD screen
M117 Printing...
;LAYER_COUNT:198
;LAYER:0
M107
G0 F3600 X76.778 Y76.854 Z0.3
;TYPE:SKIRT
G1 F1800 X79.068 Y74.763 E0.15471
G1 X79.824 Y74.154 E0.20314
G1 X82.357 Y72.363 E0.35791
G1 X83.182 Y71.854 E0.40628
G1 X85.918 Y70.391 E0.56107
G1 X86.586 Y70.073 E0.59798
G1 X88.123 Y69.43 E0.6811
G1 X88.594 Y69.251 E0.70623
G1 X90.061 Y68.746 E0.78364
G1 X90.756 Y68.542 E0.81978
G1 X93.769 Y67.809 E0.97448
G1 X94.723 Y67.639 E1.02282
G1 X97.806 Y67.285 E1.17765
G1 X98.774 Y67.234 E1.22601
G1 X101.873 Y67.265 E1.38062
G1 X102.835 Y67.335 E1.42875
G1 X105.911 Y67.749 E1.58359
G1 X106.632 Y67.88 E1.62015
G1 X108.142 Y68.23 E1.69748
G1 X108.835 Y68.425 E1.7334
G1 X111.78 Y69.401 E1.88818
G1 X112.677 Y69.761 E1.93641
G1 X115.479 Y71.094 E2.09121
G1 X116.328 Y71.566 E2.13967
G1 X118.941 Y73.236 E2.29439
G1 X119.722 Y73.805 E2.34259
G1 X122.107 Y75.784 E2.49721
G1 X122.812 Y76.448 E2.54553
G1 X124.935 Y78.709 E2.70026
G1 X125.554 Y79.455 E2.74862
G1 X127.381 Y81.963 E2.90343
G1 X127.9 Y82.777 E2.95159
G1 X129.403 Y85.491 E3.10637
G1 X129.818 Y86.365 E3.15464
G1 X130.973 Y89.243 E3.30936
G1 X131.276 Y90.158 E3.35744
G1 X132.067 Y93.156 E3.51213
G1 X132.222 Y93.88 E3.54907
G1 X132.474 Y95.412 E3.62653
G1 X132.557 Y96.125 E3.66234
G1 X132.777 Y99.219 E3.81709
G1 X132.786 Y100.179 E3.86499
G1 X132.624 Y103.276 E4.01971
G1 X132.512 Y104.246 E4.06843
G1 X131.964 Y107.301 E4.22327
G1 X131.736 Y108.238 E4.27138
G1 X130.816 Y111.199 E4.42607
G1 X130.471 Y112.105 E4.47444
G1 X129.191 Y114.929 E4.62913
G1 X128.855 Y115.586 E4.66594
G1 X128.026 Y117.033 E4.74914
G1 X127.624 Y117.663 E4.78643
G1 X125.833 Y120.193 E4.94108
G1 X125.225 Y120.948 E4.98944
G1 X123.133 Y123.237 E5.14415
G1 X122.618 Y123.75 E5.18041
G1 X121.468 Y124.794 E5.2579
G1 X121.102 Y125.106 E5.2819
G1 X119.89 Y126.077 E5.35937
G1 X119.301 Y126.505 E5.3957
G1 X116.712 Y128.209 E5.55033
G1 X115.871 Y128.691 E5.59869
G1 X113.09 Y130.061 E5.75336
G1 X112.201 Y130.432 E5.80142
G1 X109.269 Y131.45 E5.95626
G1 X108.572 Y131.657 E5.99254
G1 X107.066 Y132.027 E6.0699
G1 X106.587 Y132.129 E6.09434
G1 X105.059 Y132.404 E6.17179
G1 X104.343 Y132.498 E6.20782
G1 X101.252 Y132.763 E6.3626
G1 X100.289 Y132.786 E6.41066
G1 X97.192 Y132.668 E6.56528
G1 X96.227 Y132.571 E6.61367
G1 X93.165 Y132.069 E6.76847
G1 X92.451 Y131.918 E6.80488
G1 X90.95 Y131.525 E6.88229
G1 X90.257 Y131.308 E6.91852
G1 X87.341 Y130.246 E7.07334
G1 X86.452 Y129.858 E7.12174
G1 X83.693 Y128.444 E7.27641
G1 X82.867 Y127.954 E7.32432
G1 X80.302 Y126.211 E7.47904
G1 X79.531 Y125.614 E7.52769
G1 X77.203 Y123.564 E7.68245
G1 X76.677 Y123.054 E7.719
G1 X75.535 Y121.84 E7.80215
G1 X75.048 Y121.271 E7.83952
G1 X73.149 Y118.818 E7.99429
G1 X72.605 Y118.016 E8.04263
G1 X71.025 Y115.347 E8.19737
G1 X70.585 Y114.486 E8.24561
G1 X69.348 Y111.643 E8.40029
G1 X69.017 Y110.734 E8.44856
G1 X68.141 Y107.758 E8.60333
G1 X67.968 Y107.047 E8.63984
G1 X67.671 Y105.523 E8.7173
G1 X67.566 Y104.809 E8.7533
G1 X67.257 Y101.725 E8.90794
G1 X67.22 Y100.758 E8.95622
G1 X67.295 Y97.656 E9.11102
G1 X67.379 Y96.693 E9.15925
G1 X67.837 Y93.627 E9.31391
G1 X67.976 Y92.918 E9.34995
G1 X68.346 Y91.412 E9.42732
G1 X68.555 Y90.708 E9.46396
G1 X69.576 Y87.776 E9.61885
G1 X69.947 Y86.889 E9.66682
G1 X71.319 Y84.109 E9.82149
G1 X71.802 Y83.267 E9.86991
G1 X73.509 Y80.678 E10.02463
G1 X73.938 Y80.09 E10.06094
G1 X74.91 Y78.879 E10.13841
G1 X75.225 Y78.511 E10.16258
G1 X76.269 Y77.364 E10.23996
G1 X76.778 Y76.854 E10.27591
G0 F3600 X77.047 Y77.149
G1 F1800 X79.337 Y75.058 E10.43062
G1 X80.055 Y74.481 E10.47657
G1 X82.588 Y72.69 E10.63134
G1 X83.371 Y72.206 E10.67727
G1 X86.107 Y70.743 E10.83206
G1 X86.74 Y70.442 E10.86703
G1 X88.277 Y69.799 E10.95015
G1 X88.724 Y69.629 E10.97401
G1 X90.191 Y69.124 E11.05141
G1 X90.851 Y68.931 E11.08572
G1 X93.864 Y68.198 E11.24042
G1 X94.769 Y68.036 E11.28629
G1 X97.852 Y67.682 E11.44111
G1 X98.77 Y67.634 E11.48697
G1 X101.869 Y67.665 E11.64159
G1 X102.782 Y67.731 E11.68726
G1 X105.858 Y68.145 E11.8421
G1 X106.542 Y68.27 E11.87679
G1 X108.052 Y68.62 E11.95413
G1 X108.709 Y68.805 E11.98818
G1 X111.654 Y69.781 E12.14296
G1 X112.505 Y70.123 E12.18872
G1 X115.307 Y71.456 E12.34353
G1 X116.113 Y71.903 E12.38951
G1 X118.726 Y73.573 E12.54422
G1 X119.466 Y74.113 E12.58992
G1 X121.851 Y76.092 E12.74454
G1 X122.521 Y76.722 E12.79042
G1 X124.644 Y78.983 E12.94516
G1 X125.23 Y79.691 E12.99101
G1 X127.057 Y82.199 E13.14581
G1 X127.55 Y82.971 E13.19151
G1 X129.053 Y85.685 E13.34629
G1 X129.447 Y86.514 E13.39208
G1 X130.602 Y89.392 E13.5468
G1 X130.889 Y90.26 E13.59241
G1 X131.68 Y93.258 E13.7471
G1 X131.827 Y93.945 E13.78215
G1 X132.079 Y95.477 E13.85961
G1 X132.158 Y96.153 E13.89356
G1 X132.378 Y99.247 E14.04831
G1 X132.387 Y100.159 E14.09382
G1 X132.225 Y103.256 E14.24854
G1 X132.119 Y104.176 E14.29474
G1 X131.571 Y107.231 E14.44959
G1 X131.354 Y108.12 E14.49524
G1 X130.434 Y111.081 E14.64993
G1 X130.107 Y111.94 E14.69579
G1 X128.827 Y114.764 E14.85047
G1 X128.508 Y115.388 E14.88544
G1 X127.679 Y116.835 E14.96864
G1 X127.298 Y117.432 E15.00397
G1 X125.507 Y119.962 E15.15862
G1 X124.929 Y120.678 E15.20453
G1 X122.837 Y122.967 E15.35923
G1 X122.349 Y123.454 E15.39363
G1 X121.199 Y124.498 E15.47112
G1 X120.852 Y124.794 E15.49387
G1 X119.64 Y125.765 E15.57135
G1 X119.081 Y126.171 E15.60582
G1 X116.492 Y127.875 E15.76045
G1 X115.694 Y128.332 E15.80633
G1 X112.913 Y129.702 E15.961
G1 X112.07 Y130.055 E16.0066
G1 X109.138 Y131.073 E16.16144
G1 X108.477 Y131.268 E16.19582
G1 X106.971 Y131.638 E16.27319
G1 X106.516 Y131.735 E16.2964
G1 X104.988 Y132.01 E16.37386
G1 X104.309 Y132.1 E16.40803
G1 X101.218 Y132.365 E16.56281
G1 X100.304 Y132.387 E16.60842
G1 X97.207 Y132.269 E16.76304
G1 X96.292 Y132.177 E16.80892
G1 X93.23 Y131.675 E16.96372
G1 X92.553 Y131.531 E16.99826
G1 X91.052 Y131.138 E17.07566
G1 X90.394 Y130.932 E17.11006
G1 X87.478 Y129.87 E17.26489
G1 X86.635 Y129.502 E17.31078
G1 X83.876 Y128.088 E17.46545
G1 X83.092 Y127.624 E17.5109
G1 X80.527 Y125.881 E17.66562
G1 X79.796 Y125.314 E17.71178
G1 X77.468 Y123.264 E17.86653
G1 X76.968 Y122.78 E17.90125
G1 X75.826 Y121.566 E17.9844
G1 X75.365 Y121.026 E18.01983
G1 X73.466 Y118.573 E18.17459
G1 X72.949 Y117.813 E18.22045
G1 X71.369 Y115.144 E18.37519
G1 X70.951 Y114.326 E18.42102
G1 X69.714 Y111.483 E18.5757
G1 X69.401 Y110.621 E18.62146
G1 X68.525 Y107.645 E18.77623
G1 X68.361 Y106.97 E18.81088
G1 X68.064 Y105.446 E18.88835
G1 X67.964 Y104.769 E18.92249
G1 X67.655 Y101.685 E19.07712
G1 X67.62 Y100.768 E19.1229
G1 X67.695 Y97.666 E19.27771
G1 X67.774 Y96.752 E19.32348
G1 X68.232 Y93.686 E19.47814
G1 X68.365 Y93.013 E19.51236
G1 X68.735 Y91.507 E19.58973
G1 X68.933 Y90.839 E19.62449
G1 X69.954 Y87.907 E19.77939
G1 X70.306 Y87.066 E19.82487
G1 X71.678 Y84.286 E19.97954
G1 X72.136 Y83.488 E20.02544
G1 X73.843 Y80.899 E20.18015
G1 X74.25 Y80.34 E20.21465
G1 X75.222 Y79.129 E20.29212
G1 X75.52 Y78.78 E20.31502
G1 X76.564 Y77.633 E20.3924
G1 X77.047 Y77.149 E20.42651
G0 F3600 X77.317 Y77.445
G1 F1800 X79.607 Y75.354 E20.58122
G1 X80.286 Y74.807 E20.62472
G1 X82.819 Y73.016 E20.77949
G1 X83.559 Y72.559 E20.82288
G1 X86.295 Y71.096 E20.97767
G1 X86.894 Y70.811 E21.01077
G1 X88.431 Y70.168 E21.09389
G1 X88.855 Y70.007 E21.11652
G1 X90.322 Y69.502 E21.19392
G1 X90.945 Y69.319 E21.22631
G1 X93.958 Y68.586 E21.38102
G1 X94.814 Y68.434 E21.42439
G1 X97.897 Y68.08 E21.57921
G1 X98.766 Y68.034 E21.62263
G1 X101.865 Y68.065 E21.77725
G1 X102.729 Y68.128 E21.82047
G1 X105.805 Y68.542 E21.97531
G1 X106.452 Y68.66 E22.00812
G1 X107.962 Y69.01 E22.08546
G1 X108.583 Y69.184 E22.11763
G1 X111.528 Y70.16 E22.27242
G1 X112.333 Y70.484 E22.31571
G1 X115.135 Y71.817 E22.47051
G1 X115.898 Y72.24 E22.51404
G1 X118.511 Y73.91 E22.66875
G1 X119.211 Y74.421 E22.71199
G1 X121.596 Y76.4 E22.86661
G1 X122.229 Y76.995 E22.90995
G1 X124.352 Y79.256 E23.06468
G1 X124.907 Y79.926 E23.10809
G1 X126.734 Y82.434 E23.26289
G1 X127.2 Y83.165 E23.30614
G1 X128.703 Y85.879 E23.46092
G1 X129.075 Y86.663 E23.50421
G1 X130.23 Y89.541 E23.65893
G1 X130.502 Y90.362 E23.70208
G1 X131.293 Y93.36 E23.85677
G1 X131.432 Y94.01 E23.88993
G1 X131.684 Y95.542 E23.96739
G1 X131.759 Y96.182 E23.99954
G1 X131.979 Y99.276 E24.15429
G1 X131.987 Y100.138 E24.19729
G1 X131.825 Y103.235 E24.35202
G1 X131.725 Y104.105 E24.39571
G1 X131.177 Y107.16 E24.55055
G1 X130.972 Y108.001 E24.59374
G1 X130.052 Y110.962 E24.74843
G1 X129.743 Y111.775 E24.79182
G1 X128.463 Y114.599 E24.94651
G1 X128.161 Y115.189 E24.97958
G1 X127.332 Y116.636 E25.06277
G1 X126.971 Y117.2 E25.09618
G1 X125.18 Y119.73 E25.25083
G1 X124.634 Y120.408 E25.29426
G1 X122.542 Y122.697 E25.44897
G1 X122.08 Y123.158 E25.48153
G1 X120.93 Y124.202 E25.55902
G1 X120.602 Y124.482 E25.58054
G1 X119.39 Y125.453 E25.65802
G1 X118.861 Y125.837 E25.69063
G1 X116.272 Y127.541 E25.84526
G1 X115.517 Y127.973 E25.88866
G1 X112.736 Y129.343 E26.04332
G1 X111.939 Y129.677 E26.08644
G1 X109.007 Y130.695 E26.24128
G1 X108.381 Y130.88 E26.27385
G1 X106.875 Y131.25 E26.35122
G1 X106.445 Y131.341 E26.37314
G1 X104.917 Y131.616 E26.4506
G1 X104.275 Y131.701 E26.48291
G1 X101.184 Y131.966 E26.63769
G1 X100.319 Y131.987 E26.68085
G1 X97.222 Y131.869 E26.83548
G1 X96.357 Y131.782 E26.87885
G1 X93.295 Y131.28 E27.03365
G1 X92.654 Y131.144 E27.06634
G1 X91.153 Y130.751 E27.14375
G1 X90.531 Y130.556 E27.17627
G1 X87.615 Y129.494 E27.3311
G1 X86.817 Y129.147 E27.37451
G1 X84.058 Y127.733 E27.52919
G1 X83.317 Y127.293 E27.57218
G1 X80.752 Y125.55 E27.7269
G1 X80.06 Y125.013 E27.7706
G1 X77.732 Y122.963 E27.92536
G1 X77.259 Y122.506 E27.95817
G1 X76.117 Y121.292 E28.04132
G1 X75.681 Y120.781 E28.07483
G1 X73.782 Y118.328 E28.2296
G1 X73.293 Y117.609 E28.27298
G1 X71.713 Y114.94 E28.42772
G1 X71.318 Y114.167 E28.47103
G1 X70.081 Y111.324 E28.62571
G1 X69.785 Y110.508 E28.66902
G1 X68.909 Y107.532 E28.82379
G1 X68.753 Y106.894 E28.85656
G1 X68.456 Y105.37 E28.93402
G1 X68.362 Y104.729 E28.96634
G1 X68.053 Y101.645 E29.12098
G1 X68.02 Y100.778 E29.16426
G1 X68.095 Y97.676 E29.31907
G1 X68.17 Y96.811 E29.36238
G1 X68.628 Y93.745 E29.51704
G1 X68.753 Y93.109 E29.54938
G1 X69.123 Y91.603 E29.62675
G1 X69.31 Y90.971 E29.65963
G1 X70.331 Y88.039 E29.81453
G1 X70.665 Y87.243 E29.85759
G1 X72.037 Y84.463 E30.01226
G1 X72.47 Y83.708 E30.05568
G1 X74.177 Y81.119 E30.21039
G1 X74.562 Y80.59 E30.24304
G1 X75.534 Y79.379 E30.32051
G1 X75.816 Y79.049 E30.34216
G1 X76.86 Y77.902 E30.41954
G1 X77.317 Y77.445 E30.45179
G0 F3600 X77.587 Y77.74
G1 F1800 X79.877 Y75.649 E30.6065
G1 X80.517 Y75.134 E30.64748
G1 X83.05 Y73.343 E30.80225
G1 X83.748 Y72.912 E30.84318
G1 X86.484 Y71.449 E30.99797
G1 X87.049 Y71.18 E31.02919
G1 X88.586 Y70.537 E31.11231
G1 X88.985 Y70.385 E31.13361
G1 X90.452 Y69.88 E31.21101
G1 X91.04 Y69.708 E31.24158
G1 X94.053 Y68.975 E31.39628
G1 X94.86 Y68.831 E31.43718
G1 X97.943 Y68.477 E31.592
G1 X98.762 Y68.434 E31.63292
G1 X101.861 Y68.465 E31.78754
G1 X102.675 Y68.524 E31.82825
G1 X105.751 Y68.938 E31.9831
G1 X106.361 Y69.049 E32.01403
G1 X107.871 Y69.399 E32.09136
G1 X108.457 Y69.564 E32.12173
G1 X111.402 Y70.54 E32.27652
G1 X112.161 Y70.845 E32.31733
G1 X114.963 Y72.178 E32.47213
G1 X115.682 Y72.577 E32.51316
G1 X118.295 Y74.247 E32.66787
G1 X118.956 Y74.729 E32.70869
G1 X121.341 Y76.708 E32.8633
G1 X121.937 Y77.269 E32.90414
G1 X124.06 Y79.53 E33.05887
G1 X124.584 Y80.162 E33.09983
G1 X126.411 Y82.67 E33.25463
G1 X126.85 Y83.359 E33.29539
G1 X128.353 Y86.073 E33.45017
G1 X128.704 Y86.812 E33.49099
G1 X129.859 Y89.69 E33.6457
G1 X130.116 Y90.464 E33.68639
G1 X130.907 Y93.462 E33.84108
G1 X131.037 Y94.075 E33.87234
G1 X131.289 Y95.607 E33.9498
G1 X131.36 Y96.21 E33.98009
G1 X131.58 Y99.304 E34.13484
G1 X131.588 Y100.117 E34.17541
G1 X131.426 Y103.214 E34.33013
G1 X131.331 Y104.034 E34.37131
G1 X130.783 Y107.089 E34.52616
G1 X130.59 Y107.882 E34.56688
G1 X129.67 Y110.843 E34.72157
G1 X129.378 Y111.61 E34.76251
G1 X128.098 Y114.434 E34.9172
G1 X127.814 Y114.99 E34.94835
G1 X126.985 Y116.437 E35.03155
G1 X126.645 Y116.969 E35.06305
G1 X124.854 Y119.499 E35.21769
G1 X124.339 Y120.139 E35.25868
G1 X122.247 Y122.428 E35.41339
G1 X121.811 Y122.862 E35.44408
G1 X120.661 Y123.906 E35.52157
G1 X120.352 Y124.17 E35.54184
G1 X119.14 Y125.141 E35.61932
G1 X118.642 Y125.503 E35.65004
G1 X116.053 Y127.207 E35.80467
G1 X115.341 Y127.615 E35.84561
G1 X112.56 Y128.985 E36.00028
G1 X111.808 Y129.299 E36.04093
G1 X108.876 Y130.317 E36.19578
G1 X108.286 Y130.491 E36.22647
G1 X106.78 Y130.861 E36.30384
G1 X106.374 Y130.948 E36.32455
G1 X104.846 Y131.223 E36.40201
G1 X104.241 Y131.303 E36.43245
G1 X101.15 Y131.568 E36.58723
G1 X100.335 Y131.587 E36.6279
G1 X97.238 Y131.469 E36.78252
G1 X96.421 Y131.387 E36.82349
G1 X93.359 Y130.885 E36.97829
G1 X92.755 Y130.757 E37.0091
G1 X91.254 Y130.364 E37.08651
G1 X90.667 Y130.181 E37.11718
G1 X87.751 Y129.119 E37.27201
G1 X87 Y128.791 E37.31289
G1 X84.241 Y127.377 E37.46757
G1 X83.542 Y126.962 E37.50812
G1 X80.977 Y125.219 E37.66284
G1 X80.324 Y124.713 E37.70405
G1 X77.996 Y122.663 E37.85881
G1 X77.551 Y122.232 E37.88972
G1 X76.409 Y121.018 E37.97287
G1 X75.997 Y120.536 E38.00451
G1 X74.098 Y118.083 E38.15927
G1 X73.638 Y117.405 E38.20015
G1 X72.058 Y114.736 E38.35489
G1 X71.685 Y114.007 E38.39574
G1 X70.448 Y111.164 E38.55043
G1 X70.169 Y110.395 E38.59124
G1 X69.293 Y107.419 E38.74601
G1 X69.146 Y106.817 E38.77693
G1 X68.849 Y105.293 E38.85439
G1 X68.76 Y104.689 E38.88485
G1 X68.451 Y101.605 E39.03948
G1 X68.42 Y100.787 E39.08032
G1 X68.495 Y97.685 E39.23512
G1 X68.565 Y96.87 E39.27594
G1 X69.023 Y93.804 E39.4306
G1 X69.142 Y93.204 E39.46111
G1 X69.512 Y91.698 E39.53848
G1 X69.688 Y91.103 E39.56944
G1 X70.709 Y88.171 E39.72433
G1 X71.024 Y87.42 E39.76496
G1 X72.396 Y84.64 E39.91963
G1 X72.804 Y83.928 E39.96057
G1 X74.511 Y81.339 E40.11528
G1 X74.874 Y80.841 E40.14603
G1 X75.846 Y79.63 E40.2235
G1 X76.112 Y79.318 E40.24395
G1 X77.156 Y78.171 E40.32133
G1 X77.587 Y77.74 E40.35174
G0 F3600 X77.856 Y78.036
G1 F1800 X80.146 Y75.945 E40.50645
G1 X80.748 Y75.461 E40.54499
G1 X83.281 Y73.67 E40.69976
G1 X83.936 Y73.265 E40.73818
G1 X86.672 Y71.802 E40.89297
G1 X87.203 Y71.549 E40.92231
G1 X88.74 Y70.906 E41.00544
G1 X89.115 Y70.764 E41.02544
G1 X90.582 Y70.259 E41.10284
G1 X91.134 Y70.097 E41.13155
G1 X94.147 Y69.364 E41.28625
G1 X94.906 Y69.228 E41.32472
G1 X97.989 Y68.874 E41.47954
G1 X98.758 Y68.834 E41.51796
G1 X101.857 Y68.865 E41.67258
G1 X102.622 Y68.92 E41.71084
G1 X105.698 Y69.334 E41.86569
G1 X106.271 Y69.439 E41.89475
G1 X107.781 Y69.789 E41.97208
G1 X108.331 Y69.944 E42.00059
G1 X111.276 Y70.92 E42.15537
G1 X111.989 Y71.206 E42.1937
G1 X114.791 Y72.539 E42.34851
G1 X115.467 Y72.914 E42.38707
G1 X118.08 Y74.584 E42.54179
G1 X118.7 Y75.037 E42.5801
G1 X121.085 Y77.016 E42.73471
G1 X121.646 Y77.543 E42.77311
G1 X123.769 Y79.804 E42.92785
G1 X124.26 Y80.397 E42.96626
G1 X126.087 Y82.905 E43.12106
G1 X126.5 Y83.552 E43.15936
G1 X128.003 Y86.266 E43.31413
G1 X128.333 Y86.961 E43.35252
G1 X129.488 Y89.839 E43.50723
G1 X129.729 Y90.566 E43.54545
